television-classic.svg

<svg fill="currentColor" viewBox="0 0 24 24"><path d="M8.16 3 6.75 4.41 9.34 7H4c-1.11 0-2 .89-2 2v10c0 1.11.89 2 2 2h16c1.11 0 2-.89 2-2V9c0-1.11-.89-2-2-2h-5.34l2.59-2.59L15.84 3 12 6.84zM4 9h13v10H4zm15.5 0a1 1 0 0 1 1 1 1 1 0 0 1-1 1 1 1 0 0 1-1-1 1 1 0 0 1 1-1m0 3a1 1 0 0 1 1 1 1 1 0 0 1-1 1 1 1 0 0 1-1-1 1 1 0 0 1 1-1"/></svg>

<svg  viewBox="0 0 24 24" fill="currentColor"><path  d="M8.16,3L6.75,4.41L9.34,7H4C2.89,7 2,7.89 2,9V19C2,20.11 2.89,21 4,21H20C21.11,21 22,20.11 22,19V9C22,7.89 21.11,7 20,7H14.66L17.25,4.41L15.84,3L12,6.84L8.16,3M4,9H17V19H4V9M19.5,9A1,1 0 0,1 20.5,10A1,1 0 0,1 19.5,11A1,1 0 0,1 18.5,10A1,1 0 0,1 19.5,9M19.5,12A1,1 0 0,1 20.5,13A1,1 0 0,1 19.5,14A1,1 0 0,1 18.5,13A1,1 0 0,1 19.5,12Z"/></svg>
